!!!COM: Bach, Johann Sebastian
!!!OTL@@DE: 340. Befiehl du deine Wege
!!!OTL@EN: Entrust thy ways
!!!SCA: BWV 272
**kern	**kern	**kern	**kern
*staff2	*staff2	*staff1	*staff1
*Iorgan	*Iorgan	*Iorgan	*Iorgan
*>[A,A,B]	*>[A,A,B]	*>[A,A,B]	*>[A,A,B]
*>norep[A,B]	*>norep[A,B]	*>norep[A,B]	*>norep[A,B]
*>A	*>A	*>A	*>A
!bass	!tenor	!alto	!sprno
*clefF4	*clefF4	*clefG2	*clefG2
*k[b-]	*k[b-]	*k[b-]	*k[b-]
*met(C)	*met(C)	*met(C)	*met(C)
*M4/4	*M4/4	*M4/4	*M4/4
*MM60	*MM60	*MM60	*MM60
8F\L	8A/L	8d\L	8d/L
8E\J	8G/J	8c#\J	8e/J
=1	=1	=1	=1
4.D\	4A/	4d\	4f/
.	4G/	4B-\	4e/
8C#\	.	.	.
8D\L	4F/	4A\	4f/
8Cn\J	.	.	.
8BB-\L	8F/L	8d\L	4g/
8C\J	8E/J	8c\J	.
=2	=2	=2	=2
2FF\	2F/	2c\	2a/
4FF;\	4F;/	4c;\	4a;/
4E\	4G/	4c\	4cc/
=3	=3	=3	=3
4D\	4G#/	4f\	4bn/
4D#\	4c/	4f#\	4a/
4E\	8Bn/L	4e\	4a/
.	8c/J	.	.
4EE\	4dn/	4e\	4g#/
=4	=4	=4	=4
2.AA;\	2.c;/	2.e;\	2.a;/
=:|!	=:|!	=:|!	=:|!
*>B	*>B	*>B	*>B
[4A\	4c/	8e\L	4a/
.	.	8f#\J	.
=5	=5	=5	=5
4A\]	4d/	4g#\	4bn/
8A\L	4e/	4a\	4cc/
8Gn\J	.	.	.
4F#\	4d/	4a\	8dd/L
.	.	.	8cc/J
8G\L	4d/	4gn\	4bn/
8Fn\J	.	.	.
=6	=6	=6	=6
!!linebreak: 2
8E\L	8c/L	4g\	4.cc/
8C\J	8e/J	.	.
8D\L	8d/L	8f\L	.
8E\J	8c/J	8g\J	8b-/
4F;\	4c;/	4f;\	4a;/
4FF\	4c/	8f\L	4a/
.	.	8e-\J	.
=7	=7	=7	=7
4BB-\	4B-/	4d\	4g/
4BBn\	4A-/	4d\	4f/
4C\	4.G/	4c\	4f/
4CC\	.	4c\	4e/
.	16An/LL	.	.
.	16B-/JJ	.	.
=8	=8	=8	=8
2.FF;\	2.A;/	2.c;\	2.f;/
4C#\	4A/	4e\	8a/L
.	.	.	8g/J
=9	=9	=9	=9
8D\L	4A/	4f\	4f/
8Cn\J	.	.	.
8BB-\L	8d/L	4e\	4g/
8C\J	8c/J	.	.
8FF\L	4c/	4.f\	4a/
8AA\J	.	.	.
8BBn\L	8d/L	.	4g/
8C#\J	8e/J	[8e\	.
=10	=10	=10	=10
8D\L	8A/L	8e\L]	2f/
8BB-\J	8G#/J	8d\J	.
8AA\L	8A/L	4d\	.
8GG#\J	8Bn/J	.	.
4AA;\	4A;/	4c#;\	4e;/
4D\	4A/	[4d\	4f/
=11	=11	=11	=11
4E\	4G/	8d\L]	4g/
.	.	8c#\J	.
8F\L	4A/	[4d\	4f/
8G\J	.	.	.
4A\	4.A/	4d\]	2e/
4AA\	.	4c#\	.
.	8G/	.	.
=12	=12	=12	=12
2.D;\	2.F;/	2.A;\	2.d;/
==	==	==	==
*-	*-	*-	*-
!!!ENC: Craig Stuart Sapp
!!!END: 2004/12/06/
!!chor2scor: -l 2 -s 0.6 -o %b.pmx
